blockchains/steem/logo.svg

<svg fill="none" height="250" viewBox="0 0 250 250" width="250" xmlns="http://www.w3.org/2000/svg" xmlns:xlink="http://www.w3.org/1999/xlink"><clipPath id="a"><path d="m0 0h250v250h-250z"/></clipPath><g clip-path="url(#a)"><path d="m125.021 0c-69.0471 0-125.021 55.9739-125.021 125.021 0 69.047 55.9739 125.021 125.021 125.021 69.047 0 125.021-55.974 125.021-125.021 0-69.0471-55.974-125.021-125.021-125.021zm-31.2657 168.218-1.1847 1.185c-2.4538 2.453-5.077 4.78-7.7847 6.938l-3.1308 2.454c-.2115.169-.4654.254-.7192.254-.2116 0-.4231-.042-.5924-.169-.423-.254-.6346-.72-.5077-1.227l1.227-5.543c1.3538-6.007 1.0577-12.311-.8462-18.192l-.6769-2.031c-.7616-2.369-1.6924-4.696-2.6654-6.981l-14.4272-34.058-1.5654-4.654c-.4654-1.439-.8039-2.919-.9731-4.442l-.2538-2.3274c-.7193-6.5578 1.5231-12.9887 6.177-17.6426l1.1846-1.1846c2.4539-2.4539 5.077-4.7809 7.7847-6.9386l3.1309-2.4539c.3807-.2961.8884-.3384 1.3115-.0846.4231.2539.6346.7193.5077 1.227l-1.2269 5.5424c-1.3539 6.0077-1.0577 12.3117.8461 18.1925l.677 2.0308c.7615 2.369 1.6923 4.696 2.6654 6.981l14.4695 34.058 1.5654 4.654c.4654 1.439.8038 2.919.9731 4.442l.2538 2.327c.6774 6.516-1.5654 12.989-6.2193 17.643zm48.8237 11.169-1.523 1.523c-3.089 3.089-6.389 6.051-9.816 8.716l-4.061 3.215c-.212.17-.508.254-.762.254-.211 0-.465-.084-.677-.211-.465-.296-.677-.804-.55-1.312l1.608-7.15c1.692-7.615 1.312-15.569-1.1-22.973l-.846-2.581c-.973-3.004-2.116-5.966-3.385-8.843l-18.235-42.943-1.946-5.838c-.592-1.7771-1.015-3.681-1.227-5.5425l-.3382-2.9616c-.9308-8.2078 1.9042-16.2464 7.7002-22.1273l1.523-1.5231c3.088-3.0885 6.389-6.0501 9.816-8.7155l4.061-3.2154c.423-.3385.973-.3808 1.439-.0847.465.2962.677.8039.55 1.3116l-1.608 7.1501c-1.692 7.6155-1.312 15.5695 1.1 22.9734l.846 2.5809c.973 2.9615 2.115 5.9654 3.385 8.8424l18.235 42.9857 1.946 5.838c.592 1.777 1.015 3.681 1.227 5.543l.338 2.961c.931 8.208-1.904 16.289-7.7 22.127zm41.632-11.169-1.185 1.185c-2.454 2.453-5.077 4.78-7.785 6.938l-3.131 2.454c-.211.169-.465.254-.719.254-.211 0-.423-.042-.592-.169-.423-.254-.635-.72-.508-1.227l1.227-5.543c1.354-6.007 1.058-12.311-.846-18.192l-.677-2.031c-.762-2.369-1.692-4.696-2.666-6.981l-14.469-34.058-1.565-4.654c-.466-1.439-.804-2.919-.973-4.442l-.254-2.3274c-.72-6.5578 1.523-12.9887 6.177-17.6426l1.184-1.1846c2.454-2.4539 5.077-4.7809 7.785-6.9386l3.131-2.4539c.381-.2961.888-.3384 1.311-.0846.424.2539.635.7193.508 1.227l-1.227 5.5424c-1.354 6.0077-1.058 12.3117.846 18.1925l.677 2.0308c.762 2.369 1.693 4.696 2.666 6.981l14.469 34.058 1.566 4.654c.465 1.439.803 2.919.973 4.442l.254 2.327c.719 6.516-1.524 12.989-6.177 17.643z" fill="#171fc9"/></g></svg>

<svg width="250" height="250" viewBox="0 0 250 250" fill="none" xmlns="http://www.w3.org/2000/svg">
<g clip-path="url(#clip0_9_834)">
<path d="M125.021 0C55.9739 0 0 55.9739 0 125.021C0 194.068 55.9739 250.042 125.021 250.042C194.068 250.042 250.042 194.068 250.042 125.021C250.042 55.9739 194.068 0 125.021 0ZM93.7553 168.218L92.5706 169.403C90.1168 171.856 87.4936 174.183 84.7859 176.341L81.6551 178.795C81.4436 178.964 81.1897 179.049 80.9359 179.049C80.7243 179.049 80.5128 179.007 80.3435 178.88C79.9205 178.626 79.7089 178.16 79.8358 177.653L81.0628 172.11C82.4166 166.103 82.1205 159.799 80.2166 153.918L79.5397 151.887C78.7781 149.518 77.8473 147.191 76.8743 144.906L62.4471 110.848L60.8817 106.194C60.4163 104.755 60.0778 103.275 59.9086 101.752L59.6548 99.4246C58.9355 92.8668 61.1779 86.4359 65.8318 81.782L67.0164 80.5974C69.4703 78.1435 72.0934 75.8165 74.8011 73.6588L77.932 71.2049C78.3127 70.9088 78.8204 70.8665 79.2435 71.1203C79.6666 71.3742 79.8781 71.8396 79.7512 72.3473L78.5243 77.8897C77.1704 83.8974 77.4666 90.2014 79.3704 96.0822L80.0474 98.113C80.8089 100.482 81.7397 102.809 82.7128 105.094L97.1823 139.152L98.7477 143.806C99.2131 145.245 99.5515 146.725 99.7208 148.248L99.9746 150.575C100.652 157.091 98.4092 163.564 93.7553 168.218ZM142.579 179.387L141.056 180.91C137.967 183.999 134.667 186.961 131.24 189.626L127.179 192.841C126.967 193.011 126.671 193.095 126.417 193.095C126.206 193.095 125.952 193.011 125.74 192.884C125.275 192.588 125.063 192.08 125.19 191.572L126.798 184.422C128.49 176.807 128.11 168.853 125.698 161.449L124.852 158.868C123.879 155.864 122.736 152.902 121.467 150.025L103.232 107.082L101.286 101.244C100.694 99.4669 100.271 97.563 100.059 95.7015L99.7208 92.7399C98.79 84.5321 101.625 76.4935 107.421 70.6126L108.944 69.0895C112.032 66.001 115.333 63.0394 118.76 60.374L122.821 57.1586C123.244 56.8201 123.794 56.7778 124.26 57.0739C124.725 57.3701 124.937 57.8778 124.81 58.3855L123.202 65.5356C121.51 73.1511 121.89 81.1051 124.302 88.509L125.148 91.0899C126.121 94.0514 127.263 97.0553 128.533 99.9323L146.768 142.918L148.714 148.756C149.306 150.533 149.729 152.437 149.941 154.299L150.279 157.26C151.21 165.468 148.375 173.549 142.579 179.387ZM184.211 168.218L183.026 169.403C180.572 171.856 177.949 174.183 175.241 176.341L172.11 178.795C171.899 178.964 171.645 179.049 171.391 179.049C171.18 179.049 170.968 179.007 170.799 178.88C170.376 178.626 170.164 178.16 170.291 177.653L171.518 172.11C172.872 166.103 172.576 159.799 170.672 153.918L169.995 151.887C169.233 149.518 168.303 147.191 167.329 144.906L152.86 110.848L151.295 106.194C150.829 104.755 150.491 103.275 150.322 101.752L150.068 99.4246C149.348 92.8668 151.591 86.4359 156.245 81.782L157.429 80.5974C159.883 78.1435 162.506 75.8165 165.214 73.6588L168.345 71.2049C168.726 70.9088 169.233 70.8665 169.656 71.1203C170.08 71.3742 170.291 71.8396 170.164 72.3473L168.937 77.8897C167.583 83.8974 167.879 90.2014 169.783 96.0822L170.46 98.113C171.222 100.482 172.153 102.809 173.126 105.094L187.595 139.152L189.161 143.806C189.626 145.245 189.964 146.725 190.134 148.248L190.388 150.575C191.107 157.091 188.864 163.564 184.211 168.218Z" fill="#171FC9"/>
</g>
<defs>
<clipPath id="clip0_9_834">
<rect width="250" height="250" fill="white"/>
</clipPath>
</defs>
</svg>
